actions/scalable/games-achievements.svg

<?xml version="1.0" encoding="UTF-8" standalone="no"?>
<!-- Created with Inkscape (http://www.inkscape.org/) -->

<svg
   xmlns:dc="http://purl.org/dc/elements/1.1/"
   xmlns:cc="http://creativecommons.org/ns#"
   xmlns:rdf="http://www.w3.org/1999/02/22-rdf-syntax-ns#"
   xmlns:svg="http://www.w3.org/2000/svg"
   xmlns="http://www.w3.org/2000/svg"
   xmlns:sodipodi="http://sodipodi.sourceforge.net/DTD/sodipodi-0.dtd"
   xmlns:inkscape="http://www.inkscape.org/namespaces/inkscape"
   width="24"
   height="24"
   id="svg3760"
   version="1.1"
   inkscape:version="0.48+devel r"
   sodipodi:docname="games-achievements.svg">
  <defs
     id="defs3762" />
  <sodipodi:namedview
     id="base"
     pagecolor="#ffffff"
     bordercolor="#666666"
     borderopacity="1.0"
     inkscape:pageopacity="0.0"
     inkscape:pageshadow="2"
     inkscape:zoom="24.447652"
     inkscape:cx="6.3066752"
     inkscape:cy="13.468558"
     inkscape:document-units="px"
     inkscape:current-layer="layer1"
     showgrid="true"
     fit-margin-top="0"
     fit-margin-left="0"
     fit-margin-right="0"
     fit-margin-bottom="0"
     inkscape:window-width="1366"
     inkscape:window-height="668"
     inkscape:window-x="-2"
     inkscape:window-y="23"
     inkscape:window-maximized="1"
     inkscape:showpageshadow="false">
    <sodipodi:guide
       position="-1.4433594e-05,24.000012"
       orientation="24,0"
       id="guide4115" />
    <sodipodi:guide
       position="-1.4433594e-05,1.1816406e-05"
       orientation="0,24"
       id="guide4117" />
    <sodipodi:guide
       position="23.999986,1.1816406e-05"
       orientation="-24,0"
       id="guide4119" />
    <sodipodi:guide
       position="23.999986,24.000012"
       orientation="0,-24"
       id="guide4121" />
    <sodipodi:guide
       position="2.9999856,21.000012"
       orientation="18,0"
       id="guide4123" />
    <sodipodi:guide
       position="2.9999856,3.0000118"
       orientation="0,18"
       id="guide4125" />
    <sodipodi:guide
       position="20.999986,3.0000118"
       orientation="-18,0"
       id="guide4127" />
    <sodipodi:guide
       position="20.999986,21.000012"
       orientation="0,-18"
       id="guide4129" />
    <sodipodi:guide
       position="3.9999856,20.000012"
       orientation="16,0"
       id="guide4131" />
    <sodipodi:guide
       position="3.9999856,4.0000118"
       orientation="0,16"
       id="guide4133" />
    <sodipodi:guide
       position="19.999986,4.0000118"
       orientation="-16,0"
       id="guide4135" />
    <sodipodi:guide
       position="19.999986,20.000012"
       orientation="0,-16"
       id="guide4137" />
    <inkscape:grid
       type="xygrid"
       id="grid4139" />
  </sodipodi:namedview>
  <metadata
     id="metadata3765">
    <rdf:RDF>
      <cc:Work
         rdf:about="">
        <dc:format>image/svg+xml</dc:format>
        <dc:type
           rdf:resource="http://purl.org/dc/dcmitype/StillImage" />
        <dc:title />
      </cc:Work>
    </rdf:RDF>
  </metadata>
  <g
     inkscape:label="Capa 1"
     inkscape:groupmode="layer"
     id="layer1"
     transform="translate(-550.28572,-606.6479)">
    <path
       style="opacity:1;fill:#666666;fill-opacity:1;stroke:none"
       d="M 12 4 C 9.784 4 8 5.784 8 8 C 8 9.4829714 8.8072919 10.75838 10 11.449219 L 10 20 L 12 18 L 14 20 L 14 11.449219 C 15.192708 10.75838 16 9.4829714 16 8 C 16 5.784 14.216 4 12 4 z M 12 5 C 13.662 5 15 6.338 15 8 C 15 9.662 13.662 11 12 11 C 10.338 11 9 9.662 9 8 C 9 6.338 10.338 5 12 5 z M 12 6 L 11.380859 7.3164062 L 10 7.5273438 L 11 8.5527344 L 10.763672 10 L 12 9.3164062 L 13.236328 10 L 13 8.5527344 L 14 7.5273438 L 12.619141 7.3164062 L 12 6 z "
       transform="translate(550.28572,606.6479)"
       id="path4114" />
  </g>
</svg>

<svg height="24" width="24" xmlns="http://www.w3.org/2000/svg" xmlns:sodipodi="http://sodipodi.sourceforge.net/DTD/sodipodi-0.dtd" xmlns:inkscape="http://www.inkscape.org/namespaces/inkscape">
 <path d="m12 4c-2.216 0-4 1.784-4 4 0 1.483 0.8073 2.758 2 3.449v8.551l2-2 2 2v-8.551c1.193-0.691 2-1.966 2-3.449 0-2.216-1.784-4-4-4zm0 1c1.662 0 3 1.338 3 3s-1.338 3-3 3-3-1.338-3-3 1.338-3 3-3zm0 1l-0.619 1.3164-1.381 0.2109 1 1.0254-0.236 1.4473 1.236-0.6836 1.236 0.6836-0.236-1.4473 1-1.0254-1.381-0.2109-0.619-1.3164z" fill="#4d4d4d" transform="matrix(1 0 0 1 0 0)"/>
</svg>
